public/themes/gatenhielmska/assets/images/arrow.svg

<svg fill="none" height="22" viewBox="0 0 27 22" width="27" xmlns="http://www.w3.org/2000/svg"><path d="m27 9.62878h-21.3871l7.761-7.25758-2.0733-1.938827-11.3006 10.567527 11.3006 10.5676 2.0733-1.9388-7.761-7.2576h21.3871z" fill="#12495f"/></svg>

<svg width="27" height="22" viewBox="0 0 27 22" fill="none" xmlns="http://www.w3.org/2000/svg">
<path d="M27 9.62878H5.6129L13.3739 2.3712L11.3006 0.432373L0 10.9999L11.3006 21.5675L13.3739 19.6287L5.6129 12.3711H27V9.62878Z" fill="#12495F"/>
</svg>
